src/assets/buttons/gitcoin.svg

<svg height="55" viewBox="0 0 55 55" width="55" xmlns="http://www.w3.org/2000/svg"><g fill="none" fill-rule="evenodd"><rect fill="#141414" fill-rule="nonzero" height="55" rx="2" width="55"/><path d="m23 17.2903252c-4.2089621 2.1524256-7.0750661 6.3699335-7.0750661 11.2098681 0 6.9035969 5.8322424 12.5415509 13.0750661 12.7248508v-.0362229h10.0126321v-2.5534776l-8.1529379-5.776502c-.3672878.0921907-.7515424.1411584-1.1470192.1411584-2.5984754 0-4.712675-2.1140004-4.712675-4.7124758s2.1141996-4.7126749 4.712675-4.7126749c.5135962 0 1.0082656.0825947 1.4714256.2351985l6.2427443-5.4970846c-2.3133343-1.6498724-5.1158269-2.5424141-8.0629265-2.5424141-1.526849 0-2.9950374.2424174-4.3639184.6887561v4.5117594c-.00021.5682522-.4478756 1.0288274-1.0000951 1.0289354-.5521887-.0001081-.9997999-.4607149-.9999049-1.0289354zm0-3.070116v-4.1911759c0-.5683194.4477153-1.0290333 1-1.0290333s1 .4607139 1 1.0290333v3.5305358c.967278-.2537907 1.9702618-.4253588 3-.506225v-3.0413878c0-.55888802.4477153-1.0119563 1-1.0119563s1 .45306828 1 1.0119563v2.999454c4.1322685.1485531 7.9946245 1.7432724 10.9349037 4.5285408l1.0650963 1.008878-3.3247655 2.9681895c1.5103953 1.9146867 2.3247655 4.2153162 2.3247655 6.6413186 0 2.4353743-.8307629 4.7617446-2.3653581 6.6895399l3.3653581 2.3840344-.0002084 6.7680885h-12.9997916v-.0037805c-8.8558564-.1840487-16-7.0648079-16-15.4960262 0-6.4099574 4.1289584-11.9236094 10-14.2799841zm13.1676901 18.8800684c1.123579-1.4274168 1.7313426-3.1448343 1.7313426-4.9419404 0-1.7592337-.5754334-3.4296898-1.6446357-4.8323789l-2.6385829 2.3234798c.5107206.7532667.8093366 1.6614729.8093366 2.6380861 0 1.0838587-.3678012 2.0834267-.9851476 2.880448zm-9.1676901-14.1002776h3.5z" fill="#fff"/></g></svg>

<svg xmlns="http://www.w3.org/2000/svg" width="55" height="55" viewBox="0 0 55 55">
  <g fill="none" fill-rule="evenodd">
    <rect width="55" height="55" fill="#141414" fill-rule="nonzero" rx="2"/>
    <path fill="#FFF" d="M23,17.2903252 C18.7910379,19.4427508 15.9249339,23.6602587 15.9249339,28.5001933 C15.9249339,35.4037902 21.7571763,41.0417442 29,41.2250441 L29,41.1888212 L39.0126321,41.1888212 L39.0126321,38.6353436 L30.8596942,32.8588416 C30.4924064,32.9510323 30.1081518,33 29.712675,33 C27.1141996,33 25,30.8859996 25,28.2875242 C25,25.6890488 27.1141996,23.5748493 29.712675,23.5748493 C30.2262712,23.5748493 30.7209406,23.657444 31.1841006,23.8100478 L37.4268449,18.3129632 C35.1135106,16.6630908 32.311018,15.7705491 29.3639184,15.7705491 C27.8370694,15.7705491 26.368881,16.0129665 25,16.4593052 L25,20.9710646 C24.99979,21.5393168 24.5521244,21.999892 23.9999049,22 C23.4477162,21.9998919 23.000105,21.5392851 23,20.9710646 L23,17.2903252 Z M23,14.2202092 L23,10.0290333 C23,9.4607139 23.4477153,9 24,9 C24.5522847,9 25,9.4607139 25,10.0290333 L25,13.5595691 C25.967278,13.3057784 26.9702618,13.1342103 28,13.0533441 L28,10.0119563 C28,9.45306828 28.4477153,9 29,9 C29.5522847,9 30,9.45306828 30,10.0119563 L30,13.0114103 C34.1322685,13.1599634 37.9946245,14.7546827 40.9349037,17.5399511 L42,18.5488291 L38.6752345,21.5170186 C40.1856298,23.4317053 41,25.7323348 41,28.1583372 C41,30.5937115 40.1692371,32.9200818 38.6346419,34.8478771 L42,37.2319115 L41.9997916,44 L29,44 L29,43.9962195 C20.1441436,43.8121708 13,36.9314116 13,28.5001933 C13,22.0902359 17.1289584,16.5765839 23,14.2202092 Z M36.1676901,33.1002776 C37.2912691,31.6728608 37.8990327,29.9554433 37.8990327,28.1583372 C37.8990327,26.3991035 37.3235993,24.7286474 36.254397,23.3259583 L33.6158141,25.6494381 C34.1265347,26.4027048 34.4251507,27.310911 34.4251507,28.2875242 C34.4251507,29.3713829 34.0573495,30.3709509 33.4400031,31.1679722 L36.1676901,33.1002776 Z M27,19 L30.5,19 L27,19 Z"/>
  </g>
</svg>
